icon-themes/sifr_svg/cmd/sc_togglebreakpoint.svg

<svg viewBox="0 0 16 16" xmlns="http://www.w3.org/2000/svg"><path d="m8 1c-3.9 0-7 3.1-7 7s3.1 7 7 7v-2c-2.76 0-5-2.2-5-5 0-2.76 2.24-5 5-5 2.61469 0 4.705318 1.9529564 4.970703 4.4589844l1.933594 1.6582031c.057322-.3644919.095703-.7351836.095703-1.1171875 0-3.9-3.1-7-7-7zm0 4c-1.6568542 0-3 1.3431458-3 3s1.3431458 3 3 3v-5.6269531zm1 .3730469v9.0000001l2-2 2 3.626953h2v-1l-2-3.626953h3z" fill="#555753"/></svg>

<svg xmlns="http://www.w3.org/2000/svg" viewBox="0 0 16 16">
  <path
     style="fill:#555753"
     d="M 8 1 C 4.1 1 1 4.1 1 8 C 1 11.9 4.1 15 8 15 L 8 13 C 5.24 13 3 10.8 3 8 C 3 5.24 5.24 3 8 3 C 10.61469 3 12.705318 4.9529564 12.970703 7.4589844 L 14.904297 9.1171875 C 14.961619 8.7526956 15 8.3820039 15 8 C 15 4.1 11.9 1 8 1 z M 8 5 C 6.3431458 5 5 6.3431458 5 8 C 5 9.6568542 6.3431458 11 8 11 L 8 5.3730469 L 8 5 z M 9 5.3730469 L 9 14.373047 L 11 12.373047 L 13 16 L 15 16 L 15 15 L 13 11.373047 L 16 11.373047 L 9 5.3730469 z "
     />
</svg>
